src/img/logo.svg

<svg width="46" height="46" viewBox="0 0 46 46" fill="none" xmlns="http://www.w3.org/2000/svg">
<path d="M6.16151 30.1877C4.32881 30.1877 2.875 31.5776 2.875 33.4729C2.875 34.2318 3.02244 34.9111 3.48427 35.3994L10.3222 42.5327C10.7888 43.021 11.6724 43.125 12.3692 43.125C14.1731 43.125 15.8125 41.544 15.8125 39.6537V33.3059C15.8113 31.4108 14.0143 30.1875 12.2126 30.1875C10.2061 30.1877 8.16926 30.1877 6.16151 30.1877Z" fill="#142333"/>
<path d="M31.625 22.9988C31.625 18.2323 27.7674 14.375 22.9994 14.375C18.2314 14.375 14.375 18.2297 14.375 22.9988C14.375 27.7679 18.2313 31.625 22.9994 31.625C27.7663 31.6237 31.625 27.7652 31.625 22.9988ZM25.5143 17.9688C26.9149 17.9688 28.0312 19.0833 28.0312 20.4844C28.0312 21.8854 26.9173 23 25.5143 23C24.1138 23 23 21.8843 23 20.4844C22.9988 19.0831 24.1113 17.9688 25.5143 17.9688Z" fill="#142333"/>
<path d="M23.1294 0C10.5257 0 0 10.496 0 23.0717V23.7539C0 25.9723 2.16692 27.799 4.39219 27.799C6.61881 27.799 8.78438 25.9748 8.78438 23.7539V23.0717C8.78438 15.0106 14.7043 8.45518 22.7838 8.45518C30.8623 8.45518 37.3752 14.788 37.3752 22.848C37.3752 30.908 30.744 37.2384 22.6656 37.2384H21.9804C19.7562 37.2384 18.4555 39.4009 18.4555 41.6203C18.4555 43.8398 20.2869 46 22.5123 46H23.1974C35.8021 46 46 35.5757 46 23.0002C46 10.4267 35.8021 0 23.1974 0H23.1294Z" fill="#142333"/>
</svg>

<svg width="46" height="46" fill="none" xmlns="http://www.w3.org/2000/svg"><path d="M6.162 30.188c-1.833 0-3.287 1.39-3.287 3.285 0 .759.147 1.438.61 1.926l6.837 7.134c.467.488 1.35.592 2.047.592 1.804 0 3.444-1.581 3.444-3.471v-6.348c-.002-1.895-1.799-3.118-3.6-3.118H6.162zm25.463-7.189a8.62 8.62 0 00-8.626-8.624 8.617 8.617 0 00-8.624 8.624 8.619 8.619 0 008.624 8.626 8.623 8.623 0 008.626-8.626zm-6.11-5.03c1.4 0 2.516 1.114 2.516 2.515A2.5 2.5 0 0125.514 23 2.5 2.5 0 0123 20.484a2.498 2.498 0 012.514-2.515z" fill="#142333"/><path d="M23.13 0C10.525 0 0 10.496 0 23.072v.682c0 2.218 2.167 4.045 4.392 4.045 2.227 0 4.392-1.824 4.392-4.045v-.682c0-8.061 5.92-14.617 14-14.617 8.078 0 14.591 6.333 14.591 14.393s-6.631 14.39-14.71 14.39h-.685c-2.224 0-3.524 2.163-3.524 4.382 0 2.22 1.83 4.38 4.056 4.38h.685C35.802 46 46 35.576 46 23 46 10.427 35.802 0 23.197 0h-.068z" fill="#142333"/></svg>
